packages/foundations/assets/icons/functional/images/navigation/gear_wheel.svg

<svg xmlns="http://www.w3.org/2000/svg" width="32" height="32" fill="none"><path fill="#1A1C1F" fill-rule="evenodd" d="M14.373 2.059c-1.339.13-2.07.351-2.492.757-.314.301-.328.393-.253 1.75.037.659.057 1.206.046 1.216s-.553.322-1.205.694l-1.184.676-.977-.634c-1.205-.782-1.159-.758-1.438-.757-.337 0-.694.23-1.219.784-1.1 1.161-2.449 3.472-3.014 5.162-.219.657-.271 1.015-.184 1.278.127.385.332.54 1.45 1.1l1.057.529v2.77l-1.061.534c-1.14.575-1.333.725-1.454 1.128-.089.299.021.829.347 1.662.686 1.755 1.955 3.829 2.965 4.845.508.512.797.687 1.13.687.258 0 .341-.045 1.545-.832l.849-.555 1.186.676c.653.371 1.196.683 1.208.692.011.009-.017.544-.064 1.189-.054.751-.068 1.232-.037 1.34.17.592.929.955 2.399 1.148.808.106 3.003.12 3.84.026 1.588-.181 2.437-.562 2.613-1.174.031-.108.017-.589-.037-1.34-.047-.645-.075-1.18-.064-1.189.012-.009.555-.321 1.208-.692l1.186-.676.849.555c1.215.795 1.285.832 1.557.832.408-.001.891-.372 1.552-1.192 1.297-1.609 2.662-4.202 2.879-5.465.056-.324.052-.4-.03-.614a1.2 1.2 0 0 0-.28-.408c-.102-.09-.641-.392-1.196-.669l-1.01-.506v-2.772l1.057-.529c1.645-.824 1.727-.991 1.224-2.507-.377-1.138-1.344-2.964-2.219-4.188-.425-.596-1.149-1.321-1.487-1.491-.298-.149-.637-.181-.831-.077a46 46 0 0 0-1.092.696l-.977.634-1.197-.683c-1.142-.651-1.197-.69-1.197-.842 0-.088.035-.64.078-1.227l.079-1.067-.119-.24c-.219-.441-.793-.726-1.847-.916-.525-.095-.868-.113-2.272-.125a50 50 0 0 0-1.867.007m3.445 2.073.565.092-.018.248c-.148 1.992-.136 2.177.159 2.493.18.192 3.61 2.201 3.95 2.313.356.117.561.035 1.554-.622.509-.337.951-.597.981-.579.134.083 1.014 1.325 1.365 1.926.358.614.877 1.727.96 2.061.035.141.016.154-.921.623-1.01.506-1.254.688-1.348 1.009q-.058.196-.041 2.415l.016 2.217.145.219c.128.193.267.281 1.16.731.558.281 1.015.537 1.015.567 0 .154-.591 1.463-.916 2.031-.441.769-.679 1.126-1.112 1.663l-.323.402-.874-.554c-1.087-.688-1.149-.72-1.402-.72-.215 0-.477.137-3.026 1.586-1.532.871-1.497.81-1.393 2.44.037.587.066 1.071.064 1.075s-.245.052-.538.105c-.765.141-2.915.141-3.68 0a11 11 0 0 1-.538-.105c-.002-.004.027-.488.064-1.075.104-1.63.139-1.569-1.393-2.44-2.597-1.476-2.808-1.586-3.041-1.586-.237 0-.471.127-1.643.894l-.577.377-.171-.196c-.73-.836-1.451-2.001-1.92-3.102-.392-.918-.472-.764.709-1.36.897-.452 1.037-.54 1.165-.733l.145-.219.016-2.217q.017-2.219-.041-2.415c-.094-.321-.338-.503-1.343-1.006-.523-.263-.952-.489-.952-.504 0-.097.443-1.123.726-1.683.505-.998 1.546-2.49 1.698-2.431.036.014.464.289.949.611.949.629 1.159.712 1.513.595.34-.112 3.77-2.121 3.95-2.313.295-.316.307-.502.159-2.494l-.018-.249.591-.084.752-.107c.397-.054 2.324.014 2.858.101m-2.379 6.907c-2.931.321-4.982 3.202-4.319 6.063.436 1.878 1.876 3.314 3.801 3.789.491.121 1.667.121 2.158 0 1.925-.475 3.365-1.911 3.801-3.789.435-1.877-.322-3.93-1.88-5.097-.983-.736-2.329-1.101-3.561-.966m1.241 2.054c.988.233 1.719.875 2.124 1.867.14.343.153.427.151 1.04-.001.594-.016.706-.143 1.028-.477 1.215-1.545 1.959-2.812 1.959s-2.335-.744-2.812-1.959c-.127-.323-.142-.432-.142-1.028s.015-.705.142-1.028c.564-1.437 2.027-2.224 3.492-1.879"/></svg>

<svg width="32" height="32" viewBox="0 0 32 32" fill="none" xmlns="http://www.w3.org/2000/svg"><path d="M14.373 2.059 C 13.034 2.189,12.303 2.410,11.881 2.816 C 11.567 3.117,11.553 3.209,11.628 4.566 C 11.665 5.225,11.685 5.772,11.674 5.782 C 11.663 5.792,11.121 6.104,10.469 6.476 L 9.285 7.152 8.308 6.518 C 7.103 5.736,7.149 5.760,6.870 5.761 C 6.533 5.761,6.176 5.991,5.651 6.545 C 4.551 7.706,3.202 10.017,2.637 11.707 C 2.418 12.364,2.366 12.722,2.453 12.985 C 2.580 13.370,2.785 13.525,3.903 14.085 L 4.960 14.614 4.960 15.999 L 4.960 17.384 3.899 17.918 C 2.759 18.493,2.566 18.643,2.445 19.046 C 2.356 19.345,2.466 19.875,2.792 20.708 C 3.478 22.463,4.747 24.537,5.757 25.553 C 6.265 26.065,6.554 26.240,6.887 26.240 C 7.145 26.240,7.228 26.195,8.432 25.408 L 9.281 24.853 10.467 25.529 C 11.120 25.900,11.663 26.212,11.675 26.221 C 11.686 26.230,11.658 26.765,11.611 27.410 C 11.557 28.161,11.543 28.642,11.574 28.750 C 11.744 29.342,12.503 29.705,13.973 29.898 C 14.781 30.004,16.976 30.018,17.813 29.924 C 19.401 29.743,20.250 29.362,20.426 28.750 C 20.457 28.642,20.443 28.161,20.389 27.410 C 20.342 26.765,20.314 26.230,20.325 26.221 C 20.337 26.212,20.880 25.900,21.533 25.529 L 22.719 24.853 23.568 25.408 C 24.783 26.203,24.853 26.240,25.125 26.240 C 25.533 26.239,26.016 25.868,26.677 25.048 C 27.974 23.439,29.339 20.846,29.556 19.583 C 29.612 19.259,29.608 19.183,29.526 18.969 C 29.475 18.835,29.349 18.651,29.246 18.561 C 29.144 18.471,28.605 18.169,28.050 17.892 L 27.040 17.386 27.040 16.000 L 27.040 14.614 28.097 14.085 C 29.742 13.261,29.824 13.094,29.321 11.578 C 28.944 10.440,27.977 8.614,27.102 7.390 C 26.677 6.794,25.953 6.069,25.615 5.899 C 25.317 5.750,24.978 5.718,24.784 5.822 C 24.721 5.856,24.229 6.169,23.692 6.518 L 22.715 7.152 21.518 6.469 C 20.376 5.818,20.321 5.779,20.321 5.627 C 20.321 5.539,20.356 4.987,20.399 4.400 L 20.478 3.333 20.359 3.093 C 20.140 2.652,19.566 2.367,18.512 2.177 C 17.987 2.082,17.644 2.064,16.240 2.052 C 15.331 2.045,14.491 2.048,14.373 2.059 M17.818 4.132 L 18.383 4.224 18.365 4.472 C 18.217 6.464,18.229 6.649,18.524 6.965 C 18.704 7.157,22.134 9.166,22.474 9.278 C 22.830 9.395,23.035 9.313,24.028 8.656 C 24.537 8.319,24.979 8.059,25.009 8.077 C 25.143 8.160,26.023 9.402,26.374 10.003 C 26.732 10.617,27.251 11.730,27.334 12.064 C 27.369 12.205,27.350 12.218,26.413 12.687 C 25.403 13.193,25.159 13.375,25.065 13.696 C 25.026 13.828,25.013 14.631,25.024 16.111 L 25.040 18.328 25.185 18.547 C 25.313 18.740,25.452 18.828,26.345 19.278 C 26.903 19.559,27.360 19.815,27.360 19.845 C 27.360 19.999,26.769 21.308,26.444 21.876 C 26.003 22.645,25.765 23.002,25.332 23.539 L 25.009 23.941 24.135 23.387 C 23.048 22.699,22.986 22.667,22.733 22.667 C 22.518 22.667,22.256 22.804,19.707 24.253 C 18.175 25.124,18.210 25.063,18.314 26.693 C 18.351 27.280,18.380 27.764,18.378 27.768 C 18.375 27.772,18.133 27.820,17.840 27.873 C 17.075 28.014,14.925 28.014,14.160 27.873 C 13.867 27.820,13.625 27.772,13.622 27.768 C 13.620 27.764,13.649 27.280,13.686 26.693 C 13.790 25.063,13.825 25.124,12.293 24.253 C 9.696 22.777,9.485 22.667,9.252 22.667 C 9.015 22.667,8.781 22.794,7.609 23.561 L 7.032 23.938 6.861 23.742 C 6.131 22.906,5.410 21.741,4.941 20.640 C 4.549 19.722,4.469 19.876,5.650 19.280 C 6.547 18.828,6.687 18.740,6.815 18.547 L 6.960 18.328 6.976 16.111 C 6.987 14.631,6.974 13.828,6.935 13.696 C 6.841 13.375,6.597 13.193,5.592 12.690 C 5.069 12.427,4.640 12.201,4.640 12.186 C 4.640 12.089,5.083 11.063,5.366 10.503 C 5.871 9.505,6.912 8.013,7.064 8.072 C 7.100 8.086,7.528 8.361,8.013 8.683 C 8.962 9.312,9.172 9.395,9.526 9.278 C 9.866 9.166,13.296 7.157,13.476 6.965 C 13.771 6.649,13.783 6.463,13.635 4.471 L 13.617 4.222 14.208 4.138 C 14.534 4.091,14.872 4.043,14.960 4.031 C 15.357 3.977,17.284 4.045,17.818 4.132 M15.439 11.039 C 12.508 11.360,10.457 14.241,11.120 17.102 C 11.556 18.980,12.996 20.416,14.921 20.891 C 15.412 21.012,16.588 21.012,17.079 20.891 C 19.004 20.416,20.444 18.980,20.880 17.102 C 21.315 15.225,20.558 13.172,19.000 12.005 C 18.017 11.269,16.671 10.904,15.439 11.039 M16.680 13.093 C 17.668 13.326,18.399 13.968,18.804 14.960 C 18.944 15.303,18.957 15.387,18.955 16.000 C 18.954 16.594,18.939 16.706,18.812 17.028 C 18.335 18.243,17.267 18.987,16.000 18.987 C 14.733 18.987,13.665 18.243,13.188 17.028 C 13.061 16.705,13.046 16.596,13.046 16.000 C 13.046 15.404,13.061 15.295,13.188 14.972 C 13.752 13.535,15.215 12.748,16.680 13.093 " fill="#1A1C1F" stroke="none" fill-rule="evenodd"></path></svg>
